X: 21798
T: King's, The
R: reel
M: 4/4
K: Adorian
|A2 EA FAEA|~A2 ed cAAG|A2 EA FAEF|G2 dc BGGB|
2A2 EA FAEA|~A2 ed cAAG|A2 EA FAEF|G2 dc BGGd||
^cA (3AAA eaed|^cA (3AAA BGBd|^cA (3AAA eaef|ged=c BGBd|
^cA (3AAA eaed|^cA (3AAA BGBd|=c2 dc B2 dB|AGED BGGB||

